X: 1
T: Men of Harlech  [D]
T: Rhyfelgyrch gwyr Harlech
R: march
Z: 2011 John Chambers <jc:trillian.mit.edu>
M: C|
L: 1/8
K: D
|:\
"D"D3C "G"B,3C | "D"D2E2 F2D2 | "Em"G2 "D"F2 "Em"E2 "E7"D2 | "A"C2"E7"B,2 "A7"C2A,2 |\
"D"D3C "G"B,C3 | "D"D2"E7"E2 F2"G"HB2 | "D"AF3 "A7"E3F | "D"D4 :|
"A"E3D C3D | E2 E6 | "D"A3G F3G | A2 A6 |\
"D"A3G F3G | A3G F3G | ABAG FEFG | A2 A4 D2 |
"G"B2B2 "D"A2A2 | "A7"G2G2 "D"F2F2 | "Em"E2GF "E7"E2D2 | "A"C2"E7"B,2 "A7"C2A,2 |\
"D"D3C "G"B,C3 | "D"D2"E7"E2 F2"G"HB2 | "D"AF3 "A7"E3F | "D"D4 |]
